assets/images/afrikons/like.svg

<svg viewBox="0 0 50 50" xmlns="http://www.w3.org/2000/svg"><path d="m0 0h50v50h-50z" fill="none"/><path d="m13.79 19.82-8.79-.1a5 5 0 0 0 -5 5v18.38a5 5 0 0 0 4.35 4.9l6.47.25a5 5 0 0 0 5.52-4.25l2.3-18.57a5 5 0 0 0 -4.85-5.61z"/><path d="m45.49 19.71h-11.81l8-14.91a2.41 2.41 0 0 0 -3.84-2.56l-14.41 13a7.36 7.36 0 0 0 -2.36 4.41l-3.31 23.14a4.84 4.84 0 0 0 4.79 5.53h16.55c5-.55 7.59-9.26 8.71-14.6 1.55-7.4 5.02-14.01-2.32-14.01z"/></svg>

<svg xmlns="http://www.w3.org/2000/svg" viewBox="0 0 50 50"><defs><style>.cls-1{fill:none;}</style></defs><title>like</title><g id="Layer_2" data-name="Layer 2"><g id="Layer_1-2" data-name="Layer 1"><rect class="cls-1" width="50" height="50"/><path d="M13.79,19.82,5,19.72a5,5,0,0,0-5,5V43.1A5,5,0,0,0,4.35,48l6.47.25A5,5,0,0,0,16.34,44l2.3-18.57A5,5,0,0,0,13.79,19.82Z"/><path d="M45.49,19.71H33.68l8-14.91a2.41,2.41,0,0,0-3.84-2.56l-14.41,13a7.36,7.36,0,0,0-2.36,4.41L17.76,42.79a4.84,4.84,0,0,0,4.79,5.53H39.1c5-.55,7.59-9.26,8.71-14.6C49.36,26.32,52.83,19.71,45.49,19.71Z"/></g></g></svg>
